!!!OTL: UND DU GLAUBST DU WAERST DIE SCHOENSTE
!!!ARE: Europa, Mitteleuropa, Deutschland, Niederreifenberg
!!!SCT: E0657
!!!YEM: Copyright 1995, estate of Helmut Schaffrath.
**kern
*ICvox
*Ivox
*M3/4
*k[f#c#g#]
*A:
{8e
8g#
=1
8a
8e
4e
8f#
8g#
=2
8a
8e
4e}
{8a
8cc#
=3
4.b
8b
8a
8f#
=4
4e
8r}
{8e
8e
8e
=5
8dd
8cc#
8b
8a
8g#
8f#
=6
8f#
8e
8a}
{8e
8e
8e
=7
4.cc#
8cc#
16b
16dd
16cc#
16b
=8
4a
8r}
{8e
8e
8e
=9
8dd
8cc#
8b
8a
8g#
8f#
=10
8f#
8e
8a}
{8e
8e
8e
=11
4.cc#
8cc#
16b
16dd
16cc#
16b
=12
4a
4r}
==
!!!AGN: Liebes - Lied
!!!ONB: ESAC (Essen Associative Code) Database: ERK2
!!!AMT: simple triple
!!!AIN: vox
!!!EED: Helmut Schaffrath
!!!EEV: 1.0
*-
